X:1
T:Evergreen
T:Evergreen
C:Barbra Streisand
Z:All Rights Reserved
L:1/4
M:4/4
K:A
V:1 treble nm="Voice"
%%MIDI program 52
V:1
"A" B3/2 A/- A E |"Bm/A" B3/2 A/- A E | c3/2 d/4c/4 B2- | B3 z | z2"A" C2- | C2 (3C D E | %6
w: Ah * * *||||||
w: ||||Love,|* soft as an|
"Bm/A" E F B,2- | B,3 z |"Bm/A" z2 B,2- | B,2 (3B, C D |"A" C E A,2- | A,3"A/G#" z |"F#m" z2 A2- | %13
w: |||||||
w: eas- y chair;||love,|* fresh as the|morn- ing air.||One|
 A2 (3F G A |"C#m7" G B E2- | E3 z |"Bm7" F A D2- | D3 C |"G" B,4- |"E" B, z"E7" A, E |"A" C4- | %21
w: ||||||||
w: * love that is|shared by two,||I have found|* with|you.|* Like a|rose|
 C z (3C D E |"D/E" E F B,2- | B,3 z |"Bm7" z B2 A |"D/E" F E (=C/B,/) A, |"A" B, ^C A,2- | %27
w: ||||||
w: * un- der the|A- pril snow,||I was|al- ways cer- * tain|love would grow.|
 A,3"A/G#" z |"F#m" z2 A2- | A2 (3F G A |"C#m7" G B E2- | E3 z |"Dmaj7" z2 F A | F3 C | %34
w: |||||||
w: |Love,|* age- less and|ev- er- green,||sel- dom|seen by|
"Cmaj7" E4- |"G/A" E3"A7" z |"Dmaj7" A3 G |"D6" F3 G/A/ |"C#m7" G3 E/C/ | E3 z | %40
w: ||||||
w: two.||You and|I will make|each night a|first,|
"Dmaj7" z2 (3z A G |"E/D" F3 G/A/ |"C#m7" G E3- |"G/A""A7" E3 z |"Dmaj7" z2 A G | %45
w: |||||
w: ev- 'ry|day a be-|gin- ning.||Spir- its|
"G#sus4" F3"G#7" G/A/ |"C#m7" c2 (3d c A |"C" E3 z |"A/B" z F A G/A/ |"B7" (G/F/) F3 | %50
w: |||||
w: rise and their|dance is u- re-|hearsed.|They warm and ex-|cite * us|
"D/E" z d (3d c d | (c B) c2 |"Amaj7" (c/B/) A3 | z2 (3C D E |"Gmaj7/A" F3 F | B,3 z | %56
w: ||||||
w: 'cause we have the|bright- * est|love, * *|two lights that|shine as|one,|
"Bm7" z B2 A |"D/E" (c/B/)(A/F/) (E/C/)(B,/A,/) |"A" (3B, A, A,- A,2- | A,3"A/G#" z |"F#m" z A3- | %61
w: |||||
w: morn- ing|glo- * ry- * and- * the- *|mid- night sun. *||Time,|
 A F G A |"C#m7" B B/E/- E2 | E3 z |"G/A" (d/c/) B3- | B B c3/2 d/ |"Dmaj7" (3c F A- A2- | %67
w: ||||||
w: * we've learned to|sail a- bove; *||time * *|* won't change the|mean- ing of *|
"Dm" A3 =F |"A" E4- | E z (3C D E |"B/A" ^D B3- | B4 |"Bb/A" =F _B3- | _B4 |"A" A4- |"Bb/A" A4- | %76
w: |||||||||
w: * one|love,|* age- less and|ev- er-||ev- er-||green.-||
"B/A" A4- |"C/A" A4- |"B/A" A4- |"Bb/A" A4- |"A" A4 |] %81
w: |||||
w: |||||

